docs/svgs/room-kitchen.svg

<svg viewBox="0 0 24 24" height="24px" width="24px" fill="#44739e" xmlns="http://www.w3.org/2000/svg"><title>hue:room-kitchen</title><desc>Source: https://github.com/arallsopp/hass-hue-icons</desc><path d="M 17.625 5.25 C 18.246094 5.25 18.75 5.753906 18.75 6.375 C 18.75 6.996094 18.246094 7.5 17.625 7.5 L 6.375 7.5 C 5.753906 7.5 5.25 6.996094 5.25 6.375 C 5.25 5.753906 5.753906 5.25 6.375 5.25 L 10.707031 5.25 C 10.578125 5.027344 10.5 4.773438 10.5 4.5 C 10.5 3.671875 11.171875 3 12 3 C 12.828125 3 13.5 3.671875 13.5 4.5 C 13.5 4.773438 13.421875 5.027344 13.292969 5.25 Z M 19.5 9 C 20.328125 9 21 9.671875 21 10.5 C 21 11.328125 20.328125 12 19.5 12 L 18.75 12 L 18.75 19.410156 C 18.75 20.289062 18.039062 21 17.160156 21 L 6.839844 21 C 5.960938 21 5.25 20.289062 5.25 19.410156 L 5.25 12 L 4.5 12 C 3.671875 12 3 11.328125 3 10.5 C 3 9.671875 3.671875 9 4.5 9 Z M 19.5 9 "/></svg>

<svg viewBox="0 0 24 24" height="24px" width="24px" fill="#44739e" xmlns="http://www.w3.org/2000/svg"><title>hue:room-kitchen</title><desc>Source: https://github.com/arallsopp/hass-hue-icons</desc><path d="M17.62,5.25c0.62,0,1.12,0.5,1.12,1.12s-0.5,1.12-1.12,1.12H6.38C5.75,7.5,5.25,7,5.25,6.38s0.5-1.12,1.12-1.12 h4.33C10.58,5.03,10.5,4.77,10.5,4.5C10.5,3.67,11.17,3,12,3s1.5,0.67,1.5,1.5c0,0.27-0.08,0.53-0.21,0.75H17.62z M19.5,9 c0.83,0,1.5,0.67,1.5,1.5S20.33,12,19.5,12h-0.75v7.41c0,0.88-0.71,1.59-1.59,1.59H6.84c-0.88,0-1.59-0.71-1.59-1.59V12H4.5 C3.67,12,3,11.33,3,10.5S3.67,9,4.5,9H19.5z"/></svg>
